public/avatar/item0/65.svg

<svg xmlns:xlink="http://www.w3.org/1999/xlink" height="58.65" width="49.15" xmlns="http://www.w3.org/2000/svg"><g transform="translate(24.1 18.1)"><use height="17.3" transform="translate(-.7 -3.9)" width="13.75" xlink:href="#a"/><use height="4.5" transform="translate(11.4 5.9)" width=".45" xlink:href="#b"/><use height="11.55" transform="translate(-.6 -3.8)" width="11.65" xlink:href="#c"/><use height="4" transform="translate(2.05 -3.05)" width="6.8" xlink:href="#d"/><use height="4" transform="translate(2.25 -3.45)" width="6.85" xlink:href="#e"/><use height="2.1" transform="translate(2.2 -3.45)" width="6.85" xlink:href="#f"/><use height="7.75" transform="translate(2.35)" width="8.7" xlink:href="#g"/><use height="7.75" transform="translate(.85 -.15)" width="10.05" xlink:href="#h"/><use height="4" transform="translate(2.25 -3.45)" width="5.75" xlink:href="#i"/><use height="2.1" transform="translate(5.95 -2.9)" width="2.7" xlink:href="#j"/><use height="17.3" transform="matrix(-1 0 0 1 -.1 -3.9)" width="13.75" xlink:href="#a"/><use height="4.5" transform="matrix(-1 0 0 1 -12.2 5.9)" width=".45" xlink:href="#b"/><use height="11.55" transform="matrix(-1 0 0 1 -.1 -3.8)" width="11.65" xlink:href="#c"/><use height="4" transform="matrix(-1 0 0 1 -2.85 -3.05)" width="6.8" xlink:href="#d"/><use height="4" transform="matrix(-1 0 0 1 -3.05 -3.45)" width="6.85" xlink:href="#e"/><use height="2.1" transform="matrix(-1 0 0 1 -3 -3.45)" width="6.85" xlink:href="#f"/><use height="7.75" transform="matrix(-1 0 0 1 -3.15 0)" width="8.7" xlink:href="#g"/><use height="7.75" transform="matrix(-1 0 0 1 -1.65 -.15)" width="10.05" xlink:href="#h"/><use height="4" transform="matrix(-1 0 0 1 -3.05 -3.45)" width="5.75" xlink:href="#i"/><use height="2.1" transform="matrix(-1 0 0 1 -6.75 -2.9)" width="2.7" xlink:href="#j"/></g><defs><use height="17.3" width="13.75" xlink:href="#k" id="a"/><use height="4.5" width=".45" xlink:href="#l" id="b"/><use height="11.55" width="11.65" xlink:href="#m" id="c"/><use height="4" width="6.8" xlink:href="#n" id="d"/><use height="4" width="6.85" xlink:href="#o" id="e"/><use height="2.1" width="6.85" xlink:href="#p" id="f"/><use height="7.75" width="8.7" xlink:href="#q" id="g"/><use height="7.75" width="10.05" xlink:href="#r" id="h"/><use height="4" width="5.75" xlink:href="#s" id="i"/><use height="1.85" transform="matrix(.9815 0 0 1.125 0 .019)" width="2.75" xlink:href="#t" id="j"/><path d="m1.4-.2-.05.55q1.7 2.15 1.8 8.9l-3-5.8v-.1L0 3.2Q-3.25.3-8.15-2.4l-2.05-.9-.05-.05q-.35-.15-.35-.95l.05-.6.35-.3 1.05-.15.2-1.05q.2-.8 1.65-1.65h4.55q.8-.05 1.6.5Q1.1-6 1.55-3.3q.15 1.1-.1 2.3l-.05.8" fill="#191956" fill-rule="evenodd" transform="translate(10.6 8.05)" id="k"/><path d="M0 3.7.45 0 .4 4.5 0 3.7" fill="#fff" fill-rule="evenodd" id="l"/><path d="M11 .05q1.5.15 2.7 1 3.65 2.3 1.7 9.65l-.2.3-.3.05.2.5-.45-.55-.1-.1-.6-.7-.1-.15q-2.4-2.65-4.95-3.9l-.35-.1.1.1-.3-.15-2.1-.65h-1.8v-1.8l1.7.35-.05-.75.05-.3Q7.85-.3 11 .05" fill="#fff" fill-rule="evenodd" transform="translate(-4.45)" id="m"/><path d="M6.8 2.1q0 2-3.45 1.9Q-.1 3.9 0 1.95 0-.1 3.45 0 6.9.1 6.8 2.1" fill="#676768" fill-rule="evenodd" id="n"/><path d="M6.85 2.1q-.1 2-3.45 1.9Q0 4 0 1.95.1 0 3.45 0q3.4.1 3.4 2.1" fill="#5b5bf4" fill-rule="evenodd" id="o"/><path d="M6.85 2.1Q4.1-1.05 0 1.95.2 0 3.5 0q3.35.1 3.35 2.1" fill="#15156d" fill-rule="evenodd" id="p"/><path d="M7.8 7.75q-1.55-2.7-5.3-4.8L0 1.8q5.75 2.5 7.55.75 1-.95.65-2.55 1.15 2-.4 7.75" fill="#bfbfd6" fill-rule="evenodd" id="q"/><path d="M5.75 3.5 3.4 4Q0 4 0 1.95.1 0 3.45 0 1.1 1.1 3.2 2.4q1.05.65 2.55 1.1" fill="#2b2baf" fill-rule="evenodd" id="s"/><path d="M2.55.7q.35.15.1.5-.4.8-1.15.8-.75.05-1.25-.7Q-.2.6.25.2L1.5.15Q2.05.2 2.55.7" fill="#fff" fill-rule="evenodd" transform="translate(0 -.15)" id="t"/><g id="r" fill-rule="evenodd"><path d="M6.25 4.5q2.6 1.65 3.8-.55l-.95 3.8L6.25 4.5" fill="#737393"/><path d="M.65 1.5Q-.4.8.3 0l.25.85q.4.9 1.3 1.2L.65 1.5" fill="#9f9fbc"/></g></defs></svg>

<?xml version="1.0" encoding="UTF-8" standalone="no"?>
<svg xmlns:xlink="http://www.w3.org/1999/xlink" height="58.65px" width="49.15px" xmlns="http://www.w3.org/2000/svg">
  <g transform="matrix(1.0, 0.0, 0.0, 1.0, 24.1, 18.1)">
    <use height="17.3" transform="matrix(1.0, 0.0, 0.0, 1.0, -0.7, -3.9)" width="13.75" xlink:href="#sprite0"/>
    <use height="4.5" transform="matrix(1.0, 0.0, 0.0, 1.0, 11.4, 5.9)" width="0.45" xlink:href="#sprite1"/>
    <use height="11.55" transform="matrix(1.0, 0.0, 0.0, 1.0, -0.6, -3.8)" width="11.65" xlink:href="#sprite2"/>
    <use height="4.0" transform="matrix(1.0, 0.0, 0.0, 1.0, 2.05, -3.05)" width="6.8" xlink:href="#sprite3"/>
    <use height="4.0" transform="matrix(1.0, 0.0, 0.0, 1.0, 2.25, -3.45)" width="6.85" xlink:href="#sprite4"/>
    <use height="2.1" transform="matrix(1.0, 0.0, 0.0, 1.0, 2.2, -3.45)" width="6.85" xlink:href="#sprite5"/>
    <use height="7.75" transform="matrix(1.0, 0.0, 0.0, 1.0, 2.35, 0.0)" width="8.7" xlink:href="#sprite6"/>
    <use height="7.75" transform="matrix(1.0, 0.0, 0.0, 1.0, 0.85, -0.15)" width="10.05" xlink:href="#sprite7"/>
    <use height="4.0" transform="matrix(1.0, 0.0, 0.0, 1.0, 2.25, -3.45)" width="5.75" xlink:href="#sprite8"/>
    <use height="2.1" transform="matrix(1.0, 0.0, 0.0, 1.0, 5.95, -2.9)" width="2.7" xlink:href="#sprite9"/>
    <use height="17.3" transform="matrix(-1.0, 0.0, 0.0, 1.0, -0.1, -3.9)" width="13.75" xlink:href="#sprite0"/>
    <use height="4.5" transform="matrix(-1.0, 0.0, 0.0, 1.0, -12.2, 5.9)" width="0.45" xlink:href="#sprite1"/>
    <use height="11.55" transform="matrix(-1.0, 0.0, 0.0, 1.0, -0.1, -3.8)" width="11.65" xlink:href="#sprite2"/>
    <use height="4.0" transform="matrix(-1.0, 0.0, 0.0, 1.0, -2.85, -3.05)" width="6.8" xlink:href="#sprite3"/>
    <use height="4.0" transform="matrix(-1.0, 0.0, 0.0, 1.0, -3.05, -3.45)" width="6.85" xlink:href="#sprite4"/>
    <use height="2.1" transform="matrix(-1.0, 0.0, 0.0, 1.0, -3.0, -3.45)" width="6.85" xlink:href="#sprite5"/>
    <use height="7.75" transform="matrix(-1.0, 0.0, 0.0, 1.0, -3.15, 0.0)" width="8.7" xlink:href="#sprite6"/>
    <use height="7.75" transform="matrix(-1.0, 0.0, 0.0, 1.0, -1.65, -0.15)" width="10.05" xlink:href="#sprite7"/>
    <use height="4.0" transform="matrix(-1.0, 0.0, 0.0, 1.0, -3.05, -3.45)" width="5.75" xlink:href="#sprite8"/>
    <use height="2.1" transform="matrix(-1.0, 0.0, 0.0, 1.0, -6.75, -2.9)" width="2.7" xlink:href="#sprite9"/>
  </g>
  <defs>
    <g id="sprite0" transform="matrix(1.0, 0.0, 0.0, 1.0, 10.6, 8.05)">
      <use height="17.3" transform="matrix(1.0, 0.0, 0.0, 1.0, -10.6, -8.05)" width="13.75" xlink:href="#shape0"/>
    </g>
    <g id="shape0" transform="matrix(1.0, 0.0, 0.0, 1.0, 10.6, 8.05)">
      <path d="M1.4 -0.2 L1.35 0.35 Q3.05 2.5 3.15 9.25 L0.15 3.45 0.15 3.35 0.0 3.2 Q-3.25 0.3 -8.15 -2.4 L-10.2 -3.3 -10.25 -3.35 Q-10.6 -3.5 -10.6 -4.3 L-10.55 -4.9 -10.2 -5.2 -9.15 -5.35 -8.95 -6.4 Q-8.75 -7.2 -7.3 -8.05 L-2.75 -8.05 Q-1.95 -8.1 -1.15 -7.55 1.1 -6.0 1.55 -3.3 1.7 -2.2 1.45 -1.0 L1.4 -0.2" fill="#191956" fill-rule="evenodd" stroke="none"/>
    </g>
    <g id="sprite1" transform="matrix(1.0, 0.0, 0.0, 1.0, 0.0, 0.0)">
      <use height="4.5" transform="matrix(1.0, 0.0, 0.0, 1.0, 0.0, 0.0)" width="0.45" xlink:href="#shape1"/>
    </g>
    <g id="shape1" transform="matrix(1.0, 0.0, 0.0, 1.0, 0.0, 0.0)">
      <path d="M0.0 3.7 L0.45 0.0 0.4 4.5 0.0 3.7" fill="#ffffff" fill-rule="evenodd" stroke="none"/>
    </g>
    <g id="sprite2" transform="matrix(1.0, 0.0, 0.0, 1.0, -4.45, 0.0)">
      <use height="11.55" transform="matrix(1.0, 0.0, 0.0, 1.0, 4.45, 0.0)" width="11.65" xlink:href="#shape2"/>
    </g>
    <g id="shape2" transform="matrix(1.0, 0.0, 0.0, 1.0, -4.45, 0.0)">
      <path d="M11.0 0.05 Q12.5 0.2 13.7 1.05 17.35 3.35 15.4 10.7 L15.2 11.0 14.9 11.05 15.1 11.55 14.65 11.0 14.55 10.9 13.95 10.2 13.85 10.05 Q11.45 7.4 8.9 6.15 L8.55 6.05 8.65 6.15 8.35 6.0 6.25 5.35 4.45 5.35 4.45 3.55 6.15 3.9 6.1 3.15 6.15 2.85 Q7.85 -0.3 11.0 0.05" fill="#ffffff" fill-rule="evenodd" stroke="none"/>
    </g>
    <g id="sprite3" transform="matrix(1.0, 0.0, 0.0, 1.0, 0.0, 0.0)">
      <use height="4.0" transform="matrix(1.0, 0.0, 0.0, 1.0, 0.0, 0.0)" width="6.8" xlink:href="#shape3"/>
    </g>
    <g id="shape3" transform="matrix(1.0, 0.0, 0.0, 1.0, 0.0, 0.0)">
      <path d="M6.8 2.1 Q6.8 4.1 3.35 4.0 -0.1 3.9 0.0 1.95 0.0 -0.1 3.45 0.0 6.9 0.1 6.8 2.1" fill="#676768" fill-rule="evenodd" stroke="none"/>
    </g>
    <g id="sprite4" transform="matrix(1.0, 0.0, 0.0, 1.0, 0.0, 0.0)">
      <use height="4.0" transform="matrix(1.0, 0.0, 0.0, 1.0, 0.0, 0.0)" width="6.85" xlink:href="#shape4"/>
    </g>
    <g id="shape4" transform="matrix(1.0, 0.0, 0.0, 1.0, 0.0, 0.0)">
      <path d="M6.85 2.1 Q6.75 4.1 3.4 4.0 0.0 4.0 0.0 1.95 0.1 0.0 3.45 0.0 6.85 0.1 6.85 2.1" fill="#5b5bf4" fill-rule="evenodd" stroke="none"/>
    </g>
    <g id="sprite5" transform="matrix(1.0, 0.0, 0.0, 1.0, 0.0, 0.0)">
      <use height="2.1" transform="matrix(1.0, 0.0, 0.0, 1.0, 0.0, 0.0)" width="6.85" xlink:href="#shape5"/>
    </g>
    <g id="shape5" transform="matrix(1.0, 0.0, 0.0, 1.0, 0.0, 0.0)">
      <path d="M6.85 2.1 Q4.1 -1.05 0.0 1.95 0.2 0.0 3.5 0.0 6.85 0.1 6.85 2.1" fill="#15156d" fill-rule="evenodd" stroke="none"/>
    </g>
    <g id="sprite6" transform="matrix(1.0, 0.0, 0.0, 1.0, 0.0, 0.0)">
      <use height="7.75" transform="matrix(1.0, 0.0, 0.0, 1.0, 0.0, 0.0)" width="8.7" xlink:href="#shape6"/>
    </g>
    <g id="shape6" transform="matrix(1.0, 0.0, 0.0, 1.0, 0.0, 0.0)">
      <path d="M7.8 7.75 Q6.25 5.05 2.5 2.95 L0.0 1.8 Q5.75 4.3 7.55 2.55 8.55 1.6 8.2 0.0 9.35 2.0 7.8 7.75" fill="#bfbfd6" fill-rule="evenodd" stroke="none"/>
    </g>
    <g id="sprite7" transform="matrix(1.0, 0.0, 0.0, 1.0, 0.0, 0.0)">
      <use height="7.75" transform="matrix(1.0, 0.0, 0.0, 1.0, 0.0, 0.0)" width="10.05" xlink:href="#shape7"/>
    </g>
    <g id="shape7" transform="matrix(1.0, 0.0, 0.0, 1.0, 0.0, 0.0)">
      <path d="M6.25 4.5 Q8.85 6.15 10.05 3.95 L9.1 7.75 6.25 4.5" fill="#737393" fill-rule="evenodd" stroke="none"/>
      <path d="M0.65 1.5 Q-0.4 0.8 0.3 0.0 L0.55 0.85 Q0.95 1.75 1.85 2.05 L0.65 1.5" fill="#9f9fbc" fill-rule="evenodd" stroke="none"/>
    </g>
    <g id="sprite8" transform="matrix(1.0, 0.0, 0.0, 1.0, 0.0, 0.0)">
      <use height="4.0" transform="matrix(1.0, 0.0, 0.0, 1.0, 0.0, 0.0)" width="5.75" xlink:href="#shape8"/>
    </g>
    <g id="shape8" transform="matrix(1.0, 0.0, 0.0, 1.0, 0.0, 0.0)">
      <path d="M5.75 3.5 L3.4 4.0 Q0.0 4.0 0.0 1.95 0.1 0.0 3.45 0.0 1.1 1.1 3.2 2.4 4.25 3.05 5.75 3.5" fill="#2b2baf" fill-rule="evenodd" stroke="none"/>
    </g>
    <g id="sprite9" transform="matrix(1.0, 0.0, 0.0, 1.0, 0.05, -0.15)">
      <use height="1.85" transform="matrix(0.9815, 0.0, 0.0, 1.125, -0.05, 0.1688)" width="2.75" xlink:href="#shape9"/>
    </g>
    <g id="shape9" transform="matrix(1.0, 0.0, 0.0, 1.0, 0.0, -0.15)">
      <path d="M2.55 0.7 Q2.9 0.85 2.65 1.2 2.25 2.0 1.5 2.0 0.75 2.05 0.25 1.3 -0.2 0.6 0.25 0.2 L1.5 0.15 Q2.05 0.2 2.55 0.7" fill="#ffffff" fill-rule="evenodd" stroke="none"/>
    </g>
  </defs>
</svg>
